Obsidian-SemiLight/actions/22s/system-suspend-hibernate.svg

<svg viewBox="0 0 22 22" xmlns="http://www.w3.org/2000/svg"><path d="m11 3c-.553999 0-1 .4460008-1 1s.446001 1 1 1 1-.4460008 1-1-.446001-1-1-1zm-5.2929688 2-.7070312.7070312 1.2929688 1.2929688.7070312-.7070312zm10.5859378 0-1.292969 1.2929688.707031.7070312 1.292969-1.2929688zm-5.292969 1c-2.77 0-5 2.23-5 5s2.23 5 5 5 5-2.23 5-5-2.23-5-5-5zm0 1c2.216 0 4 1.784 4 4s-1.784 4-4 4-4-1.784-4-4 1.784-4 4-4zm-7 3c-.5539992 0-1 .446001-1 1s.4460008 1 1 1 1-.446001 1-1-.4460008-1-1-1zm14 0c-.553999 0-1 .446001-1 1s.446001 1 1 1 1-.446001 1-1-.446001-1-1-1zm-11.7070312 5-1.2929688 1.292969.7070312.707031 1.2929688-1.292969zm9.4140622 0-.707031.707031 1.292969 1.292969.707031-.707031zm-4.707031 2c-.553999 0-1 .446001-1 1s.446001 1 1 1 1-.446001 1-1-.446001-1-1-1z" fill="#4d4d4d"/></svg>

<svg xmlns="http://www.w3.org/2000/svg" viewBox="0 0 22 22">
  <defs id="defs3051">
    <style type="text/css" id="current-color-scheme">
      .ColorScheme-Text {
        color:#4d4d4d;
      }
      </style>
  </defs>
    <path 
        style="fill:currentColor;fill-opacity:1;stroke:none" 
        d="M 11 3 C 10.446001 3 10 3.4460008 10 4 C 10 4.5539992 10.446001 5 11 5 C 11.553999 5 12 4.5539992 12 4 C 12 3.4460008 11.553999 3 11 3 z M 5.7070312 5 L 5 5.7070312 L 6.2929688 7 L 7 6.2929688 L 5.7070312 5 z M 16.292969 5 L 15 6.2929688 L 15.707031 7 L 17 5.7070312 L 16.292969 5 z M 11 6 C 8.23 6 6 8.23 6 11 C 6 13.77 8.23 16 11 16 C 13.77 16 16 13.77 16 11 C 16 8.23 13.77 6 11 6 z M 11 7 C 13.216 7 15 8.784 15 11 C 15 13.216 13.216 15 11 15 C 8.784 15 7 13.216 7 11 C 7 8.784 8.784 7 11 7 z M 4 10 C 3.4460008 10 3 10.446001 3 11 C 3 11.553999 3.4460008 12 4 12 C 4.5539992 12 5 11.553999 5 11 C 5 10.446001 4.5539992 10 4 10 z M 18 10 C 17.446001 10 17 10.446001 17 11 C 17 11.553999 17.446001 12 18 12 C 18.553999 12 19 11.553999 19 11 C 19 10.446001 18.553999 10 18 10 z M 6.2929688 15 L 5 16.292969 L 5.7070312 17 L 7 15.707031 L 6.2929688 15 z M 15.707031 15 L 15 15.707031 L 16.292969 17 L 17 16.292969 L 15.707031 15 z M 11 17 C 10.446001 17 10 17.446001 10 18 C 10 18.553999 10.446001 19 11 19 C 11.553999 19 12 18.553999 12 18 C 12 17.446001 11.553999 17 11 17 z " 
        id="rect4148" 
        class="ColorScheme-Text"
     />
</svg>
